X: 40
T:Missa Pro Defunctis / Communion
N: Derived from Jos0404g-Missa_Pro_Defunctis-Communion.krn
C: Josquin des Prez
%%abc-version 2.0
%%abcx-abcm2ps-target-version 5.9.1 (29 Sep 2008)
%%abc-creator hum2abc beta
%%abcx-conversion-date 2019/02/12 16:15:40
%%abc-edited-by Jesse Rodin
%%abc-edited-by Will Watson 08/06/2011
%%abcx-initial-encoding-date 2012/01/21/
%%humdrum-veritas 2838552121
%%humdrum-veritas-data 10890238
%%linebreak <none>
%%barnumbers 0
L: 1/4
M: 2/1
Q: 1/2=120
V: 1 clef=treble
V: 2 clef=treble-8
V: 3 clef=treble-8
V: 4 clef=treble-8
V: 5 clef=treble-8
V: 6 clef=bass
K: C
[V:1] z8 | 
[V:2] e8 | 
[V:3] z4A4 | 
[V:4] z8 | 
[V:5] z8 | 
[V:6] A,4C3B, | 
[V:1] z4A4 | 
[V:2] e4f4 | 
[V:3] c4d4 | 
[V:4] z8 | 
[V:5] z8 | 
[V:6] A,2G,2F,4 | 
[V:1] c4B4 | 
[V:2] g8 | 
[V:3] e8 | 
[V:4] z8 | 
[V:5] z8 | 
[V:6] E,8 | 
[V:1] c4A4 | 
[V:2] f4F4 | 
[V:3] A4z2A2 | 
[V:4] z8 | 
[V:5] F8 | 
[V:6] z2A,2C3B, | 
[V:1] z4A4 | 
[V:2] A3Bc3d | 
[V:3] c4A2c2- | 
[V:4] z8 | 
[V:5] F4F4 | 
[V:6] A,G,A,3G,F,2 | 
[V:1] c4B4 | 
[V:2] e6d2 | 
[V:3] c2BAG2AG | 
[V:4] z8 | 
[V:5] G8 | 
[V:6] E,8 | 
[V:1] c6B2 | 
[V:2] c4A4 | 
[V:3] A6GF | 
[V:4] c8 | 
[V:5] E4F4- | 
[V:6] A,,4A,4 | 
[V:1] A4G4- | 
[V:2] z4e4 | 
[V:3] c8 | 
[V:4] c4d4 | 
[V:5] F4G4 | 
[V:6] F,2E,D,E,4 | 
[V:1] G2FEF4 | 
[V:2] f4d4- | 
[V:3] F3GA4 | 
[V:4] d8 | 
[V:5] A8 | 
[V:6] D,8 | 
[V:1] G8 | 
[V:2] d2cde4 | 
[V:3] G4z2G2- | 
[V:4] B4c4- | 
[V:5] z8 | 
[V:6] G,3F,E,D,C,2 | 
[V:1] z4A4 | 
[V:2] z2c2f4 | 
[V:3] G2A4F2 | 
[V:4] c4d4 | 
[V:5] z8 | 
[V:6] E,2F,2D,4 | 
[V:1] c4B4 | 
[V:2] e3fg4 | 
[V:3] G4E4 | 
[V:4] e8 | 
[V:5] z8 | 
[V:6] C,4z2G,2 | 
[V:1] c8 | 
[V:2] c8 | 
[V:3] z2A2A4 | 
[V:4] z8 | 
[V:5] F8 | 
[V:6] F,3G,A,4 | 
[V:1] A8 | 
[V:2] f8 | 
[V:3] A4c4- | 
[V:4] z8 | 
[V:5] F4F4 | 
[V:6] D,2F,4E,D, | 
[V:1] c6BA | 
[V:2] e4c2e2- | 
[V:3] c2BAG3F | 
[V:4] z8 | 
[V:5] G8 | 
[V:6] C,8 | 
[V:1] G4A4- | 
[V:2] edcBA4- | 
[V:3] G4F4 | 
[V:4] c8 | 
[V:5] E4F4- | 
[V:6] z2C3B,A,2- | 
[V:1] A4G4- | 
[V:2] A4z2E2 | 
[V:3] z8 | 
[V:4] c4c4 | 
[V:5] F4G4 | 
[V:6] A,G,F,2E,4 | 
[V:1] G2FEF4 | 
[V:2] F3GA4 | 
[V:3] z4z2D2 | 
[V:4] d8 | 
[V:5] A8 | 
[V:6] D,8 | 
[V:1] G2E2F2G2 | 
[V:2] G4z2g2 | 
[V:3] G4F2E2 | 
[V:4] B4c4- | 
[V:5] z8 | 
[V:6] z4z2E,2 | 
[V:1] A8 | 
[V:2] f6f2 | 
[V:3] A4D4 | 
[V:4] c4d4 | 
[V:5] z8 | 
[V:6] F,8 | 
[V:1] G4z2E2 | 
[V:2] e2d4c2 | 
[V:3] z2G2c4 | 
[V:4] e8 | 
[V:5] z8 | 
[V:6] G,4A,4 | 
[V:1] F3GA2_B2- | 
[V:2] d8 | 
[V:3] B2A3GFE | 
[V:4] z8 | 
[V:5] F8 | 
[V:6] D,8- | 
[V:1] B2A3GFE | 
[V:2] z2A2d4 | 
[V:3] D2d2A2d2- | 
[V:4] z8 | 
[V:5] F4F4 | 
[V:6] D,8 | 
[V:1] D2d4B2 | 
[V:2] B2G2g4- | 
[V:3] dcBAG3F | 
[V:4] z8 | 
[V:5] G8 | 
[V:6] z4z2G,2 | 
[V:1] c4A4- | 
[V:2] g4c4- | 
[V:3] G2C2z2c2 | 
[V:4] c8 | 
[V:5] E4F4- | 
[V:6] C,2C3B,A,2- | 
[V:1] A4G4- | 
[V:2] c2d2e4 | 
[V:3] A3Bc2C2 | 
[V:4] c4c4 | 
[V:5] F4G4 | 
[V:6] A,G,F,2E,4 | 
[V:1] G2^FEF4 | 
[V:2] f4d4- | 
[V:3] F3GA2D2 | 
[V:4] d8 | 
[V:5] A8 | 
[V:6] D,8 | 
[V:1] G8- | 
[V:2] d4e4- | 
[V:3] G6C2 | 
[V:4] B4c4- | 
[V:5] G8- | 
[V:6] z2G,,2C,4- | 
[V:1] G8- | 
[V:2] e4d4 | 
[V:3] C4z2G2- | 
[V:4] c4d4 | 
[V:5] G8- | 
[V:6] C,4B,,4 | 
[V:1] G8- | 
[V:2] c6BA | 
[V:3] G2G2E3F | 
[V:4] e8 | 
[V:5] G8- | 
[V:6] C,8 | 
[V:1] G8- | 
[V:2] B8- | 
[V:3] G6FE | 
[V:4] d8- | 
[V:5] G8- | 
[V:6] G,,8- | 
[V:1] G8 ||  
[V:2] B8 ||  
[V:3] D8 ||  
[V:4] d8 ||  
[V:5] G8 ||  
[V:6] G,,8 ||  
[V:1]  [K:C] [K:clef=treble][M:2/1]c8 | 
[V:2]  [K:C] [K:clef=treble-8][M:2/1]c8 | 
[V:3]  [K:C] [K:clef=treble-8][M:2/1]G8 | 
[V:4]  [K:C] [K:clef=treble-8][M:2/1]z8 | 
[V:5]  [K:C] [K:clef=treble-8][M:2/1]z8 | 
[V:6]  [K:C] [K:clef=bass][M:2/1]C,8 | 
[V:1] c4c4 | 
[V:2] c6d2 | 
[V:3] A6F2 | 
[V:4] z8 | 
[V:5] z8 | 
[V:6] F,4F,4 | 
[V:1] c4c4 | 
[V:2] e4e4 | 
[V:3] c4c4 | 
[V:4] z8 | 
[V:5] z8 | 
[V:6] C,4C,4 | 
[V:1] c8 | 
[V:2] f6ed | 
[V:3] A8 | 
[V:4] z8 | 
[V:5] F8 | 
[V:6] F,8 | 
[V:1] c8 | 
[V:2] c8 | 
[V:3] z4A4 | 
[V:4] z8 | 
[V:5] F4F4 | 
[V:6] A,8 | 
[V:1] B4c4- | 
[V:2] z4G4 | 
[V:3] d4c3B | 
[V:4] z8 | 
[V:5] G8 | 
[V:6] G,4C,4- | 
[V:1] c2B2A4- | 
[V:2] c6A2 | 
[V:3] A2G2F4 | 
[V:4] c8 | 
[V:5] E4F4- | 
[V:6] C,4F,4- | 
[V:1] A2G2G4- | 
[V:2] c3de4 | 
[V:3] z4z2C2 | 
[V:4] c4c4 | 
[V:5] F4G4 | 
[V:6] F,4E,4 | 
[V:1] G2FEF4 | 
[V:2] f4d4- | 
[V:3] F3GA4 | 
[V:4] d8 | 
[V:5] A8 | 
[V:6] D,8 | 
[V:1] G8 | 
[V:2] d2cde4 | 
[V:3] G4z2G2- | 
[V:4] B4c4- | 
[V:5] z8 | 
[V:6] G,3F,E,D,C,2 | 
[V:1] z4A4 | 
[V:2] z2c2f4 | 
[V:3] G2A4F2 | 
[V:4] c4d4 | 
[V:5] z8 | 
[V:6] E,2F,2D,4 | 
[V:1] c4B4 | 
[V:2] e3fg4 | 
[V:3] G4E4 | 
[V:4] e8 | 
[V:5] z8 | 
[V:6] C,4z2G,2 | 
[V:1] c8 | 
[V:2] c8 | 
[V:3] z2A2A4 | 
[V:4] z8 | 
[V:5] F8 | 
[V:6] F,3G,A,4 | 
[V:1] A8 | 
[V:2] f8 | 
[V:3] A4c4- | 
[V:4] z8 | 
[V:5] F4F4 | 
[V:6] D,2F,4E,D, | 
[V:1] c6BA | 
[V:2] e4c2e2- | 
[V:3] c2BAG3F | 
[V:4] z8 | 
[V:5] G8 | 
[V:6] C,8 | 
[V:1] G4A4- | 
[V:2] edcBA4- | 
[V:3] G4F4 | 
[V:4] c8 | 
[V:5] E4F4- | 
[V:6] z2C3B,A,2- | 
[V:1] A4G4- | 
[V:2] A4z2E2 | 
[V:3] z8 | 
[V:4] c4c4 | 
[V:5] F4G4 | 
[V:6] A,G,F,2E,4 | 
[V:1] G2FEF4 | 
[V:2] F3GA4 | 
[V:3] z4z2D2 | 
[V:4] d8 | 
[V:5] A8 | 
[V:6] D,8 | 
[V:1] G2E2F2G2 | 
[V:2] G4z2g2 | 
[V:3] G4F2E2 | 
[V:4] B4c4- | 
[V:5] z8 | 
[V:6] z4z2E,2 | 
[V:1] A8 | 
[V:2] f6f2 | 
[V:3] A4D4 | 
[V:4] c4d4 | 
[V:5] z8 | 
[V:6] F,8 | 
[V:1] G4z2E2 | 
[V:2] e2d4c2 | 
[V:3] z2G2c4 | 
[V:4] e8 | 
[V:5] z8 | 
[V:6] G,4A,4 | 
[V:1] F3GA2_B2- | 
[V:2] d8 | 
[V:3] B2A3GFE | 
[V:4] z8 | 
[V:5] F8 | 
[V:6] D,8- | 
[V:1] B2A3GFE | 
[V:2] z2A2d4 | 
[V:3] D2d2A2d2- | 
[V:4] z8 | 
[V:5] F4F4 | 
[V:6] D,8 | 
[V:1] D2d4B2 | 
[V:2] B2G2g4- | 
[V:3] dcBAG3F | 
[V:4] z8 | 
[V:5] G8 | 
[V:6] z4z2G,2 | 
[V:1] c4A4- | 
[V:2] g4c4- | 
[V:3] G2C2z2c2 | 
[V:4] c8 | 
[V:5] E4F4- | 
[V:6] C,2C3B,A,2- | 
[V:1] A4G4- | 
[V:2] c2d2e4 | 
[V:3] A3Bc2C2 | 
[V:4] c4c4 | 
[V:5] F4G4 | 
[V:6] A,G,F,2E,4 | 
[V:1] G2^FEF4 | 
[V:2] f4d4- | 
[V:3] F3GA2D2 | 
[V:4] d8 | 
[V:5] A8 | 
[V:6] D,8 | 
[V:1] G8- | 
[V:2] d4e4- | 
[V:3] G6C2 | 
[V:4] B4c4- | 
[V:5] G8- | 
[V:6] z2G,,2C,4- | 
[V:1] G8- | 
[V:2] e4d4 | 
[V:3] C4z2G2- | 
[V:4] c4d4 | 
[V:5] G8- | 
[V:6] C,4B,,4 | 
[V:1] G8- | 
[V:2] c6BA | 
[V:3] G2G2E3F | 
[V:4] e8 | 
[V:5] G8- | 
[V:6] C,8 | 
[V:1] G8- | 
[V:2] B8- | 
[V:3] G6FE | 
[V:4] d8- | 
[V:5] G8- | 
[V:6] G,,8- | 
[V:1] G8 |]  
[V:2] B8 |]  
[V:3] D8 |]  
[V:4] d8 |]  
[V:5] G8 |]  
[V:6] G,,8 |]  



